X: 1
T:Archers Hornpipe
M:2/2
L:1/8
S:Armitt MS
N:* It's possible that the last two notes of the A music are D's
K:C major
G|cBce gece|BGBc dBGB|AGcB AGF|F2D2D2GB cBce gece|BGBc dBGB|AcGc FAGF|F2
"*"
CC:||:EF|GAGE cecA|fedc BGAB|ceGc FAGE|F2D2D2 EF|GAGE cdec|BGBc defd| e/
2f/2g/2 ec GBdB|c2c2c2:||;
